X: 43
T:Griffenfeldt
M:2/4
L:1/16
C:Trad. Norweigan
S:Vsen, Spirit
R:Reinlander
Z:Dorothy Hawkinson
K:A
"A"ABcd eA=gA|feec AAcA|"Em"~B2=G2 G2Bd|1"A"~c2A2 A4:|2"A"~c2A2 A3e||!
"A"a2aa a2ba|"sl Em"=g2e2 e3f|edcB cdfa|"sl Em"=g2e2 e3e|"A"a2aa a2ba|"s
l Em"=g2e2 e3f|"A"edcA =cBAG|"A"A2e2A4|
